X: 15241
T: Willie was a Wanton Wagg
N: The index has "Wagg, the tune page has "Hagg". "Hagg" is clearly a typo and not seen in any other collections.
%R: air, reel
B: James Oswald "The Caledonian Pocket Companion" v.1 b.5 p.24
S: https://ia800501.us.archive.org/18/items/caledonianpocket01rugg/caledonianpocket01rugg_bw.pdf
Z: 2020 John Chambers <jc:trillian.mit.edu>
M: C
L: 1/8
K: D
%%slurgraces 1
%%graceslurs 1
|: "_Slow"\
F2A2 A2(Bc) | d3e d2A2 | TF2A2 A2f2 | (gf)(ed) B4 |\
(FG)A2 A2(Bc) | d3e d2A2 | F2A2 A2d2 | B2d2 A4 ::\
f2a2 e2f2 | d3e f2d2 | (fg)a2 e2f2 |
(gf)(ed) B4 |\
f2a2 e2f2 | d3e (fe)(fg) | a2A2 A2(fg) | (fe)(dc) d4 ::\
(FG)A2 D2A2 | dfed cBAG | FDAF dAfd | afed TB4 |
(FG)A2 D2A2 | Bdce dfeg | fagb afed | cB A^G A4 ::\
f2(af) d2(fd) | A2(dA) F2(AF) | (DE)(FG) A2(af) | b(gfe) {d}c4 |
(f/g/a) gb egfa | B2(cd) (cB)(AG) | (FG)A2 Bbag | (fe)(dc) d4 ::\
(F/G/A) (TBA) dA(TBA) | (F/G/A) TBA d2D2 | (FA)(GB) A(FED) |
(fe)(dc) B4 |\
(F/G/A) (TBA) dATBA | (gf)(ed) {ga}b3a | (gf)(ed) (ca)(fd) | (cB) (A^G) A4 ::\
(f/g/a) eg (fd)(Ac) |
d(BAG) F2(ED) | G3F (EG) (Bf) | (g/f/e) bd {d}c4 |\
(f/g/a) gE egfD | {de}f2(ed) (cB) (AG) | (F/G/A) Gb FaEg | (fe)(dc) {c}d4 :|


